X:1
T:Whitstable, The
M:C
L:1/8
R:Hornpipe
S:Kerr – Merry Melodies, vol. 3, No. 344  (c. 1880’s)
Z:AK/Fiddler’s Companion
K:G
(Bc) | d>ba>g f>ge>f | d>ec>d B>cA>B | G>AB>c d>ef>g | a>^ga>b a2 (Bc) |
d>ec>d B>cA>B | G>AB>c d>ef>g | G>Bd>g f>ga>f | g2b2g2 :|
|: a>g | f>ge>f d>ec>d |B>cd>e d2 a>g | f>ge>f d>ec>d | B>cd>e d2 d>c |
B>cd>e f>ga>f | g>fg>a b>ag>f |e>^de>f a>gf>e | d>^cd>e d2 :|
|: (3ddd | d2 (3ddd d2 (3ddd | d2 (d'd) c'dbd |adbd c'dbd |1 a2 (3d'd'd' d'2 :|2 a6 ||

